dist/assets/icons/facebook.svg

<?xml version="1.0" encoding="UTF-8" standalone="no"?>
<svg
   width="20"
   height="20"
   viewBox="0 0 20 20"
   fill="none"
   version="1.1"
   id="svg2"
   sodipodi:docname="facebook.svg"
   inkscape:version="1.4.3 (0d15f75, 2025-12-25)"
   xmlns:inkscape="http://www.inkscape.org/namespaces/inkscape"
   xmlns:sodipodi="http://sodipodi.sourceforge.net/DTD/sodipodi-0.dtd"
   xmlns="http://www.w3.org/2000/svg"
   xmlns:svg="http://www.w3.org/2000/svg">
  <defs
     id="defs2" />
  <sodipodi:namedview
     id="namedview2"
     pagecolor="#ffffff"
     bordercolor="#000000"
     borderopacity="0.25"
     inkscape:showpageshadow="2"
     inkscape:pageopacity="0.0"
     inkscape:pagecheckerboard="0"
     inkscape:deskcolor="#d1d1d1"
     inkscape:zoom="3.2375728"
     inkscape:cx="12.200498"
     inkscape:cy="11.582751"
     inkscape:window-width="1083"
     inkscape:window-height="556"
     inkscape:window-x="0"
     inkscape:window-y="157"
     inkscape:window-maximized="0"
     inkscape:current-layer="svg2" />
  <g
     id="path1"
     style="opacity:1">
    <path
       style="baseline-shift:baseline;display:inline;overflow:visible;vector-effect:none;fill:#212121;enable-background:accumulate;stop-color:#000000;stop-opacity:1"
       d="m 12.9338,6.38965 h 1.5108 c 0.0765,1.2e-4 0.1386,0.0621 0.1387,0.13867 0,0.07662 -0.0621,0.13855 -0.1387,0.13867 h -1.5108 c -1.1586,9e-5 -2.1003,0.942 -2.1005,2.10059 v 1.78902 h 3.333 c 0.0767,0 0.1396,0.062 0.1396,0.1387 -10e-5,0.0766 -0.063,0.1387 -0.1396,0.1387 h -3.333 v 6.3887 c 0,0.0766 -0.0621,0.1385 -0.1387,0.1386 -0.0767,0 -0.1387,-0.062 -0.1387,-0.1386 V 10.834 H 9.02759 c -0.07657,-10e-5 -0.13856,-0.0621 -0.13867,-0.1387 0,-0.0766 0.06202,-0.1386 0.13867,-0.1387 H 10.5559 V 8.76758 c 3e-4,-1.31078 1.0671,-2.37785 2.3779,-2.37793 z"
       id="path5" />
    <path
       style="baseline-shift:baseline;display:inline;overflow:visible;vector-effect:none;fill:#5454e3;enable-background:accumulate;stop-color:#000000;stop-opacity:1"
       d="M 12.933594,5.8339844 C 11.321309,5.8340828 10.000369,7.1554354 10,8.7675781 V 10.001953 H 9.0273438 c -0.37584,4.9e-4 -0.6933594,0.316886 -0.6933594,0.69336 5.398e-4,0.375897 0.317287,0.692868 0.6933594,0.693359 H 10 v 5.833984 c 0,0.376378 0.319226,0.69336 0.695313,0.69336 0.375501,-4.91e-4 0.693359,-0.316499 0.693359,-0.69336 v -5.833984 h 2.777344 c 0.37686,0 0.694816,-0.313023 0.695312,-0.693359 0,-0.380433 -0.319226,-0.69336 -0.695312,-0.69336 H 11.388672 V 8.7675781 c 1.48e-4,-0.8576059 0.687399,-1.5448552 1.544922,-1.5449219 h 1.511719 c 0.375567,-5.883e-4 0.693359,-0.31851 0.693359,-0.6953125 -4.92e-4,-0.3765561 -0.31726,-0.6927694 -0.693359,-0.6933593 z"
       id="path6" />
  </g>
  <g
     id="path2"
     style="opacity:1">
    <path
       style="baseline-shift:baseline;display:inline;overflow:visible;vector-effect:none;fill:#212121;enable-background:accumulate;stop-color:#000000;stop-opacity:1"
       d="m 5.83374,2.22266 h 8.33296 c 1.9907,0 3.6114,1.62065 3.6114,3.61132 V 14.167 c 0,1.9907 -1.6207,3.6113 -3.6114,3.6113 H 5.83374 c -1.99067,0 -3.61133,-1.6206 -3.61133,-3.6113 V 5.83398 c 0,-1.99067 1.62066,-3.61132 3.61133,-3.61132 z m 0,0.27734 C 3.99525,2.5 2.49976,3.99549 2.49976,5.83398 V 14.167 c 0,1.8385 1.49549,3.333 3.33398,3.333 h 8.33296 c 1.8385,0 3.3331,-1.4945 3.3331,-3.333 V 5.83398 C 17.4998,3.99549 16.0052,2.5 14.1667,2.5 Z"
       id="path3" />
    <path
       style="baseline-shift:baseline;display:inline;overflow:visible;vector-effect:none;fill:#5454e3;enable-background:accumulate;stop-color:#000000;stop-opacity:1"
       d="m 5.8339844,1.6679687 c -2.2921967,0 -4.1679688,1.8738171 -4.1679688,4.1660157 v 8.3339846 c 0,2.292224 1.8757814,4.166015 4.1679688,4.166015 h 8.3320316 c 2.292212,0 4.167968,-1.873784 4.167968,-4.166015 V 5.8339844 c 0,-2.292206 -1.875746,-4.1660157 -4.167968,-4.1660157 z m 0,1.3867188 h 8.3320316 c 1.53723,0 2.777343,1.2418991 2.777343,2.7792969 v 8.3339846 c 0,1.537409 -1.239914,2.777343 -2.777343,2.777343 H 5.8339844 c -1.537418,0 -2.7792969,-1.240113 -2.7792969,-2.777343 V 5.8339844 c 0,-1.5372185 1.2420784,-2.7792969 2.7792969,-2.7792969 z"
       id="path4" />
  </g>
</svg>

<svg width="20" height="20" viewBox="0 0 20 20" fill="none" xmlns="http://www.w3.org/2000/svg">
<path d="M12.9338 6.38965H14.4446C14.5211 6.38977 14.5832 6.45175 14.5833 6.52832C14.5833 6.60494 14.5212 6.66687 14.4446 6.66699H12.9338C11.7752 6.66708 10.8335 7.60899 10.8333 8.76758V10.5566H14.1663C14.243 10.5566 14.3059 10.6186 14.3059 10.6953C14.3058 10.7719 14.2429 10.834 14.1663 10.834H10.8333V17.2227C10.8333 17.2993 10.7712 17.3612 10.6946 17.3613C10.6179 17.3613 10.5559 17.2993 10.5559 17.2227V10.834H9.02759C8.95102 10.8339 8.88903 10.7719 8.88892 10.6953C8.88892 10.6187 8.95094 10.5567 9.02759 10.5566H10.5559V8.76758C10.5562 7.4568 11.623 6.38973 12.9338 6.38965Z" fill="#212121" stroke="#5454E3" stroke-width="1.11111"/>
<path d="M5.83374 2.22266H14.1667C16.1574 2.22266 17.7781 3.84331 17.7781 5.83398V14.167C17.7781 16.1577 16.1574 17.7783 14.1667 17.7783H5.83374C3.84307 17.7783 2.22241 16.1577 2.22241 14.167V5.83398C2.22241 3.84331 3.84307 2.22266 5.83374 2.22266ZM5.83374 2.5C3.99525 2.5 2.49976 3.99549 2.49976 5.83398V14.167C2.49976 16.0055 3.99525 17.5 5.83374 17.5H14.1667C16.0052 17.5 17.4998 16.0055 17.4998 14.167V5.83398C17.4998 3.99549 16.0052 2.5 14.1667 2.5H5.83374Z" fill="#212121" stroke="#5454E3" stroke-width="1.11111"/>
</svg>
